X: 202
T: Glenbeigh Hornpipe
R: Hornpipe
M: 4/4
L: 1/8
K: G
(3DEF |: "G"GABc dg (3fga | g2B2 d3B | "Am"ceAB "D"c2cA | "G"BdGA "D"BcBA |
"G"GABc dg (3fga | g2B2 d3B | "Am"ceAB "D"cAFG |1 "G"AGGF G2(3DEF:|2 "G"AGGF GA ||
|:Bc|"G"d2b2 "Am"c2a2 | "G/B"Bggf gdBG | "D"FGAB cAFA | "G"GFGA BA (3Bc^c |
"G"d2b2 "Am"c2a2 | "G/B"Bggf gdBG | "D"FGAB cAFG |1 AGGF GA (3Bc^c:|2 AGGF "G"G2|

%%newpage
%%textfont * 14
%%begintext justify
%%32 Bar Hornpipes
%%endtext
